X: 17523
T: Hills Of New Zealand, The
R: reel
M: 4/4
K: Gmajor
(3FGA|:"G"B3 G "C"cBAG|"G"G3 DD3 G/A/|"G"B3 G "C"cBAG|"D"A6 BB/A/|
"Em"G2 gg/f/ "C"e4|"G"dgdB"Am" c4|"Am"cBAG "C"e d2 c/B/|1 "D"A3 G "G"G3G/A/:|2 "D"A3 G "G"G2 Bd||
"C"e3 c "Am"gfed|"D"d3 f/g/ "G"dd/c/ BG|"C"c2 c/d/e dd/c/ "G"BB/d/|"Am"A6 "D"GG/F/|
"C"EE/D/ EF "G"G3 G/A/|"G"B2 B/A/G/F/ G3 A/B/|"Am"cBAG e "C"d2 c/B/|"D"A3 G "G"G3 B/d/|
"C"e2 aa/b/ "Am"gfed|"D"d3 f/g/ "G"dd/c/ BG|"Am"c2 c/d/e "G"dd/c/ BB/d/|"Am"A6 "D"BB/A/|
"Em"G2 gg/f/ "C"e4|"G"dgdB "Am"c4|"Am"cBAG "C"e d2 c/B/|"D"A3 G "G"G4||

